X:1
T:EVGENI’S WALTZ
T:original score for “W.E.” by Abel Korzeniowski
%%score { ( 1 3 ) | 2 } 4 5
L:1/8
Q:1/4=80
M:3/8
K:Gb
V:1 treble nm="Piano, Piano" snm="Pf."
V:3 treble 
V:2 bass 
V:4 treble nm="Piano, Piano" snm="Pf."
V:5 treble nm="Voce, Piano-2" snm="Vo."
V:1
 z3 | z3 | z3 | z3 | z3 | z3 | z3 | z3 | z3 | z3 | z3 | z3 | b2 a/g/ | f2 g/f/ | e2 .f | A2 .f | %16
 G2 c/B/ | G2 c/B/ | E2 .B | E3 | z z .B | b3 | z z .e | d'3 | z z z/ G/ | b/b-<b z/ | z z z/ A/ | %27
 a/a-<a z/ | z z .b | g'/b<g'b/ | f'/b<fA/ | A2 c/B/ | G2 c/B/ | G2- G/B/ | F3 | E3 | %36
 e/f/g/a/g/a/ | g/b/g/b/g/b/ | f/g/a/b/a/b/ | f/b/f/b/f/b/ | e/f/g/a/g/a/ | g/b/g/b/g/b/ | %42
 f/g/a/b/a/b/ | z3 | z3 | z3 | z3 | z3 | z3 | z3 |[K:treble] f/g/a/b/a/b/ | a/g'/c'/g'/c'/g/ | %52
 B/b/B/b/B/b/ | e/e'/e/e'/e/e'/ | A/a/A/a/A/a/ | d/d'/d/d'/d/d'/ | B/b/B/b/B/b/ | e/e'/e/e'/e/e'/ | %58
 A/a/A/a/A/a/ | A/a/A/a/A/a/ | B/b/B/b/B/b/ | e/e'/e/e'/e/e'/ | A/a/A/a/A/a/ | A/a/A/a/A/a/ | %64
 G/g/G/g/G/g/ | B/b/B/b/B/b/ | E/e/E/e/E/e/ | A/a/A/a/A/a/ | z3 | z3 | z3 | z3 | z3 | z3 | z3 | %75
 z3 | z3 | z3 | z3 | z3 | z3 | z3 | z3 | z3 | b2 a/g/ | f2 g/f/ | e2 .f | A2 .f | G2 c/B/ | %89
 G2 c/B/ | E2 z/ B/ | E3 | z z z/ B/ | z3 | z3 | z3 | z3 | z3 | z3 | z3 | z3 | z3 | z3 | z3 | z3 | %105
 z3 | z3 | z3 |[K:treble] z3 | z3 | z3 | z3 | f3 | e3 | d3 | c3 | B3- | B3- | B3- | B3 | z3 | z3 | %122
 f3 | e3 | d3 | c3 | B3- | B3- | B3- | B3 | z3 | z3 | [Gg]3 | [Ff]3 | [Gg]3 | [Aa]3- | [Aa]3 | z3 | %138
 b/B/b/B/b/B/ | e'/e/e'/e/e'/e/ | a/A/a/A/a/A/ | d'/d/d'/d/d'/d/ | b/B/b/B/b/B/ | e'/e/e'/e/e'/e/ | %144
 a/A/a/A/a/A/ | a/A/a/A/a/A/ | b/B/b/B/b/B/ | e'/e/e'/e/e'/e/ | a/A/a/A/a/A/ | a/A/a/A/a/A/ | %150
 g/G/g/G/g/G/ | b/B/b/B/b/B/ | e/E/e/E/e/E/ | a/A/a/A/a/A/ | z3 | z3 | z3 | z3 | f3 | e3 | d3 | %161
 c3 | B3- | B3- | B3- | B3 | z3 | z3 | f3 | e3 | d3 | c3 | B3- | B3- | B3- | B3 | z3 | z3 | z3 | %179
 z3 | z3 | z3 | z3 | z3 | z3 | z3 | z3 | z3 |] %188
V:2
 E, [B,G]2 | D, [B,G]2 | =C, [A,E]2 | C, [A,E]2 | E,[G,B,][G,B,] | D,[G,B,][G,B,] | %6
 =C,[E,A,][E,A,] | C,[E,A,][E,A,] | E,,[B,,G,][B,,G,] | B,,[D,G,][D,G,] | =C,[E,A,][E,A,] | %11
 C,[E,A,][E,A,] | E,[G,B,][G,B,] | D,[G,B,][G,B,] | =C,[E,A,][E,A,] | C,[E,A,][E,A,] | %16
 E,[G,B,][G,B,] | D,[G,B,][G,B,] | =C,[E,A,][E,A,] | C,[E,A,][E,A,] | E,[K:treble][B,G][B,G] | %21
[K:bass] D,[K:treble][B,G][B,G] |[K:bass] A,,[E,C][E,C] | _F,[A,C][A,C] | E,[G,B,][G,B,] | %25
 D,[G,B,][G,B,] | =C,[E,A,][E,A,] | C,[E,A,][E,A,] | E,,[B,,G,][B,,G,] | B,,[D,G,][D,G,] | %30
 =C,[E,A,][E,A,] | C,[E,A,][E,A,] | E,[G,B,][G,B,] | D,[G,B,][G,B,] | =C,[E,A,][E,A,] | %35
 C,[E,A,][E,A,] | E,[G,B,][G,B,] | C,[E,B,][E,B,] | D,[F,A,][F,A,] | B,,[=D,A,][D,A,] | %40
 E,[G,B,][G,B,] | D,[G,B,][G,B,] | =C,[E,A,][E,A,] | z3 | z3 | z3 | z3 | z3 | z3 | z3 | %50
[K:bass] =C,[E,A,][E,A,] | C,[E,A,][E,A,] | E,,B,,G, | D,,B,,G, | =C,,A,,E, | C,,A,,E, | E,,B,,G, | %57
 D,,B,,G, | =C,,A,,E, | C,,A,,E, | E,G,B, | D,G,B, | A,,E,C | _F,,C,A, | E,,B,,G, | D,,B,,G, | %66
 A,,=C,A, | A,,C,A, | E,/B,/[K:treble]G/B,/G/[K:bass]B,/ | D,/B,/[K:treble]G/B,/G/[K:bass]B,/ | %70
 =C,/A,/E/A,/E/A,/ | C,/A,/E/A,/E/A,/ | E,/B,/[K:treble]G/B,/G/[K:bass]B,/ | %73
 D,/B,/[K:treble]G/B,/G/[K:bass]B,/ | =C,/A,/E/A,/E/A,/ | C,/A,/E/A,/E/A,/ | E,/G,/B,/G,/B,/G,/ | %77
 D,/G,/B,/G,/B,/G,/ | A,,/E,/C/E,/C/E,/ | _F,,/C,/A,/C,/A,/C,/ | E,,/B,,/G,/B,,/G,/B,,/ | %81
 D,,/B,,/G,/B,,/G,/B,,/ | A,,/=C,/A,/C,/A,/C,/ | A,,/C,/A,/C,/A,/C,/ | E,[G,B,][G,B,] | %85
 D,[G,B,][G,B,] | =C,[E,A,][E,A,] | C,[E,A,][E,A,] | E,[G,B,][G,B,] | D,[G,B,][G,B,] | %90
 =C,[E,A,][E,A,] | C,[E,A,][E,A,] | E,[K:treble][B,G][B,G] |[K:bass] D,[K:treble][B,G][B,G] | %94
[K:bass] A,,[E,C][E,C] | _F,[A,C][A,C] | E,[G,B,][G,B,] | D,[G,B,][G,B,] | =C,[E,A,][E,A,] | %99
 C,[E,A,][E,A,] | E,,[B,,G,][B,,G,] | B,,[D,G,][D,G,] | =C,[E,A,][E,A,] | C,[E,A,][E,A,] | %104
 E,[G,B,][G,B,] | D,[G,B,][G,B,] | =C,[E,A,][E,A,] | C,[E,A,][E,A,] |[K:bass] E,[G,B,][G,B,] | %109
 E,[G,B,][G,B,] | E,[G,B,][G,B,] | E,[G,B,][G,B,] | E,[G,B,][G,B,] | E,[G,B,][G,B,] | %114
 C,[E,G,][E,G,] | C,[E,G,][E,G,] | E,[G,B,][G,B,] | E,[G,B,][G,B,] | D,[G,B,][G,B,] | %119
 D,[G,B,][G,B,] | D,[G,B,][G,B,] | D,[G,B,][G,B,] | E,[G,B,][G,B,] | E,[G,B,][G,B,] | %124
 C,[E,G,][E,G,] | C,[E,G,][E,G,] | E,[G,B,][G,B,] | E,[G,B,][G,B,] | E,[G,B,][G,B,] | %129
 E,[G,B,][G,B,] | D,[G,B,][G,B,] | D,[G,B,][G,B,] | D,[G,B,][G,B,] | D,[G,B,][G,B,] | %134
 D,[F,A,][F,A,] | D,[F,A,][F,A,] | D,[F,A,][F,A,] | D,[F,A,][F,A,] | E,,[B,,E,]G, | D,,[B,,D,]G, | %140
 =C,,[A,,=C,]E, | C,,[A,,C,]E, | E,,[B,,E,]G, | D,,[B,,D,]G, | =C,,[A,,=C,]E, | C,,[A,,C,]E, | %146
 E,,B,,G, | D,,B,,G, | A,,E,C | _F,,C,A, | E,,B,,G, | D,,B,,G, | A,,=C,A, | A,,C,A, | %154
 E,[G,B,][G,B,] | E,[G,B,][G,B,] | E,[G,B,][G,B,] | E,[G,B,][G,B,] | E,[G,B,][G,B,] | %159
 E,[G,B,][G,B,] | C,[E,G,][E,G,] | C,[E,G,][E,G,] | E,[G,B,][G,B,] | E,[G,B,][G,B,] | %164
 D,[G,B,][G,B,] | D,[G,B,][G,B,] | D,[G,B,][G,B,] | D,[G,B,][G,B,] | E,[G,B,][G,B,] | %169
 E,[G,B,][G,B,] | C,[E,G,][E,G,] | C,[E,G,][E,G,] | E,[G,B,][G,B,] | E,[G,B,][G,B,] | %174
 E,[G,B,][G,B,] | E,[G,B,][G,B,] | D,[G,B,][G,B,] | D,[G,B,][G,B,] | D,[G,B,][G,B,] | %179
 D,[G,B,][G,B,] | E,[G,B,][G,B,] | E,[G,B,][G,B,] | E,[G,B,][G,B,] | E,[G,B,][G,B,] | E,,3- | %185
 E,,3 | z3 | z3 |] %188
V:3
 x3 | x3 | x3 | x3 | x3 | x3 | x3 | x3 | x3 | x3 | x3 | x3 | x3 | x3 | x3 | x3 | x3 | x3 | x3 | %19
 x3 | x3 | x3 | x3 | x3 | x3 | z/ B/ z z | x3 | z/ A/ z z | x3 | x3 | x3 | x3 | x3 | x3 | x3 | x3 | %36
 x3 | x3 | x3 | x3 | x3 | x3 | x3 | x3 | x3 | x3 | x3 | x3 | x3 | x3 |[K:treble] x3 | x3 | x3 | %53
 x3 | x3 | x3 | x3 | x3 | x3 | x3 | x3 | x3 | x3 | x3 | x3 | x3 | x3 | x3 | x3 | x3 | x3 | x3 | %72
 x3 | x3 | x3 | x3 | x3 | x3 | x3 | x3 | x3 | x3 | x3 | x3 | x3 | x3 | x3 | x3 | x3 | x3 | x3 | %91
 x3 | x3 | x3 | x3 | x3 | x3 | x3 | x3 | x3 | x3 | x3 | x3 | x3 | x3 | x3 | x3 | x3 | %108
[K:treble] x3 | x3 | x3 | x3 | x3 | x3 | x3 | x3 | x3 | x3 | x3 | x3 | x3 | x3 | x3 | x3 | x3 | %125
 x3 | x3 | x3 | x3 | x3 | x3 | x3 | x3 | x3 | x3 | x3 | x3 | x3 | x3 | x3 | x3 | x3 | x3 | x3 | %144
 x3 | x3 | x3 | x3 | x3 | x3 | x3 | x3 | x3 | x3 | x3 | x3 | x3 | x3 | x3 | x3 | x3 | x3 | x3 | %163
 x3 | x3 | x3 | x3 | x3 | x3 | x3 | x3 | x3 | x3 | x3 | x3 | x3 | x3 | x3 | x3 | x3 | x3 | x3 | %182
 x3 | x3 | x3 | x3 | x3 | x3 |] %188
V:4
 z3 | z3 | z3 | z3 | z3 | z3 | z3 | z3 | z3 | z3 | z3 | z3 | z3 | z3 | z3 | z3 | z3 | z3 | z3 | %19
w: |||||||||||||||||||
 z3 | z3 | z3 | z3 | z3 | z3 | z3 | z3 | z3 | z3 | z3 | z3 | z3 | z3 | z3 | z3 | z3 | z3 | z3 | %38
w: |||||||||||||||||||
 z3 | z3 | z3 | z3 | z3 | a/a'/a/a'/a/a'/ | b/e'/f'/g'/f'/g'/ | e'/b'/e'/b'/e'/b'/ | %46
w: ||||||||
 c'/e'/f'/g'/f'/g'/ | a'/c''/a'/c''/a'/c''/ | e/f/g/a/g/a/ | g/a/b/e'/b/e/ | z3 | z3 | z3 | z3 | %54
w: by~Abel~ * * * * *||||||||
 z3 | z3 | z3 | z3 | z3 | z3 | z3 | z3 | z3 | z3 | z3 | z3 | z3 | z3 | z3 | z3 | z3 | z3 | z3 | %73
w: |||||||||||||||||||
 z3 | z3 | z3 | z3 | z3 | z3 | z3 | z3 | z3 | z3 | z3 | z3 | z3 | z3 | z3 | z3 | z3 | z3 | z3 | %92
w: |||||||||||||||||||
 z3 | z3 | z3 | z3 | z3 | z3 | z3 | z3 | z3 | z3 | z3 | z3 | z3 | z3 | z3 | z3 | z3 | z3 | z3 | %111
w: |||||||||||||||||||
 z3 | z3 | z3 | z3 | z3 | z3 | z3 | z3 | z3 | z3 | z3 | z3 | z3 | z3 | z3 | z3 | z3 | z3 | z3 | %130
w: |||||||||||||||||||
 z3 | z3 | z3 | z3 | z3 | z3 | z3 | z3 | z3 | z3 | z3 | z3 | z3 | z3 | z3 | z3 | z3 | z3 | z3 | %149
w: |||||||||||||||||||
 z3 | z3 | z3 | z3 | z3 | z3 | z3 | z3 | z3 | z3 | z3 | z3 | z3 | z3 | z3 | z3 | z3 | z3 | z3 | %168
w: |||||||||||||||||||
 z3 | z3 | z3 | z3 | z3 | z3 | z3 | z3 | z3 | z3 | z3 | z3 | z3 | z3 | z3 | z3 | z3 | z3 | z3 | %187
w: |||||||||||||||||||
 z3 |] %188
w: |
V:5
 z3 | z3 | z3 | z3 | z3 | z3 | z3 | z3 | z3 | z3 | z3 | z3 | z3 | z3 | z3 | z3 | z3 | z3 | z3 | %19
 z3 | z3 | z3 | z3 | z3 | z3 | z3 | z3 | z3 | z3 | z3 | z3 | z3 | z3 | z3 | z3 | z3 | z3 | z3 | %38
 z3 | z3 | z3 | z3 | z3 | C,[E,A,][E,A,] | E,[B,G][B,G] | D,[B,G][B,G] | A,,[E,=C][E,C] | %47
 _F,[A,=C][A,C] | E,[G,B,][G,B,] | D,[G,B,][G,B,] | z3 | z3 | z3 | z3 | z3 | z3 | z3 | z3 | z3 | %59
 z3 | z3 | z3 | z3 | z3 | z3 | z3 | z3 | z3 | z3 | z3 | z3 | z3 | z3 | z3 | z3 | z3 | z3 | z3 | %78
 z3 | z3 | z3 | z3 | z3 | z3 | z3 | z3 | z3 | z3 | z3 | z3 | z3 | z3 | z3 | z3 | z3 | z3 | z3 | %97
 z3 | z3 | z3 | z3 | z3 | z3 | z3 | z3 | z3 | z3 | z3 | z3 | z3 | z3 | z3 | z3 | z3 | z3 | z3 | %116
 z3 | z3 | z3 | z3 | z3 | z3 | z3 | z3 | z3 | z3 | z3 | z3 | z3 | z3 | z3 | z3 | z3 | z3 | z3 | %135
 z3 | z3 | z3 | z3 | z3 | z3 | z3 | z3 | z3 | z3 | z3 | z3 | z3 | z3 | z3 | z3 | z3 | z3 | z3 | %154
 z3 | z3 | z3 | z3 | z3 | z3 | z3 | z3 | z3 | z3 | z3 | z3 | z3 | z3 | z3 | z3 | z3 | z3 | z3 | %173
 z3 | z3 | z3 | z3 | z3 | z3 | z3 | z3 | z3 | z3 | z3 | z3 | z3 | z3 | z3 |] %188

